X: 22868
T: Lark In The Morning, The
R: jig
M: 6/8
K: Amajor
|:EFE EAF|ECE A,3|ECE c/d/dB|cAF {G}FEC|
EFE EAF|ECE A,2c|dd/c/B cBA|BAF {G}FEC:|
|:EAc e3|{f}ecf ecA|EAc ef/e/c|dcB cAF|EAc e3|
{f}ecf ecA|1 d3 c3|BAF {G}FEC:|2 d3 c/d/ec|BAF FAF||

